icons/spectrum-fill.svg

<svg xmlns="http://www.w3.org/2000/svg" width="24" height="24" fill="none"><g clip-path="url(#a)"><g><path fill="#121212" d="M13.2 2.00598C21.24 2.09298 22 3.24998 22 12L21.994 13.2C21.907 21.24 20.75 22 12 22L10.8 21.994C3.142 21.911 2.089 20.858 2.006 13.199L2 11.691L2.006 10.801C2.091 2.95098 3.196 2.04098 11.388 2.00098L13.199 2.00598H13.2ZM8.25 6.99998H7.667C7.50719 6.99988 7.35266 7.05717 7.23153 7.16142C7.1104 7.26566 7.03072 7.40994 7.007 7.56798L7 7.66698V11.333C7 11.668 7.247 11.945 7.568 11.993L7.667 12H8.25C9.21 11.9999 10.1335 12.368 10.8302 13.0284C11.5269 13.6889 11.9438 14.5913 11.995 15.55L12 15.75V16.333C12 16.668 12.247 16.945 12.568 16.993L12.667 17H16.333C16.4928 17.0001 16.6473 16.9428 16.7685 16.8385C16.8896 16.7343 16.9693 16.59 16.993 16.432L17 16.333V15.75C16.9999 13.474 16.1131 11.2877 14.5277 9.65482C12.9422 8.02195 10.7829 7.07108 8.508 7.00398L8.25 6.99998Z"/></g></g><defs><clipPath id="a"><rect width="24" height="24" fill="white"/></clipPath></defs></svg>

<svg width="24" height="24" fill="none" xmlns="http://www.w3.org/2000/svg"><g clip-path="url(#a)"><path d="M13.2 2.006C21.24 2.093 22 3.25 22 12l-.006 1.2C21.907 21.24 20.75 22 12 22l-1.2-.006c-7.658-.083-8.711-1.136-8.794-8.795L2 11.691l.006-.89c.085-7.85 1.19-8.76 9.382-8.8l1.811.005h.001ZM8.25 7h-.583a.667.667 0 0 0-.66.568L7 7.667v3.666c0 .335.247.612.568.66l.099.007h.583a3.75 3.75 0 0 1 3.745 3.55l.005.2v.583c0 .335.247.612.568.66l.099.007h3.666a.667.667 0 0 0 .66-.568l.007-.099v-.583a8.75 8.75 0 0 0-8.492-8.746L8.25 7Z" /></g><defs><clipPath id="a"><path fill="#fff" d="M0 0h24v24H0z"/></clipPath></defs></svg>
